X: 5
T: Hintikan Matin jenkka
O: Finland
R: shottish, jenkka
M: 2/4
L: 1/16
K: Dm
|: "Dm"a2a>g f2f>e | "Gm"d2c2 B4 |1,3 "A7"A2^ce a2ae | "Dm"fgfe d2A2 \
                                   :|2,4 "A7"A2^ce a2c2 | "Dm"d2d2 d4 :|
|: "Dm"D3F A2A2 | "Gm"B2B2 "Dm"A4 |1,3 "A7"A2^ce a2ae | "Dm"fgfe d2A2 \
                                 :|2,4 "A7"A2^ce a2c2 | "Dm"d2d2 d4 :|
%%sep 1 1 10cm
